packages/sources/assets/src/assets/flag-mk.svg

<svg width="28" height="20" viewBox="0 0 28 20" fill="none" xmlns="http://www.w3.org/2000/svg">
<rect width="28" height="20" rx="2" fill="white"/>
<mask id="mask0_503_4180" style="mask-type:alpha" maskUnits="userSpaceOnUse" x="0" y="0" width="28" height="20">
<rect width="28" height="20" rx="2" fill="white"/>
</mask>
<g mask="url(#mask0_503_4180)">
<rect width="28" height="20" fill="#E81B26"/>
<path fill-rule="evenodd" clip-rule="evenodd" d="M13.9998 13.3334C15.8408 13.3334 17.3332 11.841 17.3332 10C17.3332 8.15907 15.8408 6.66669 13.9998 6.66669C12.1589 6.66669 10.6665 8.15907 10.6665 10C10.6665 11.841 12.1589 13.3334 13.9998 13.3334Z" fill="#FFE94F"/>
<path fill-rule="evenodd" clip-rule="evenodd" d="M10.2082 7.27932C10.4095 6.99925 10.641 6.74239 10.898 6.51353L1.96165 -3.53064L-0.714874 -0.558062L10.2082 7.27932ZM10.8981 13.4864C10.641 13.2576 10.4095 13.0007 10.2082 12.7207L-0.714874 20.5581L1.96165 23.5306L10.8981 13.4864ZM13.0846 14.5769L12 20H16L14.9154 14.5769C14.6194 14.6358 14.3134 14.6666 14.0001 14.6666C13.6868 14.6666 13.3807 14.6358 13.0846 14.5769ZM17.792 12.7208C17.5907 13.0009 17.3591 13.2577 17.102 13.4866L26.0383 23.5306L28.7149 20.5581L17.792 12.7208ZM9.37978 10.66C9.34926 10.4444 9.33347 10.224 9.33347 9.99998C9.33347 9.77594 9.34925 9.55558 9.37978 9.33997L-6.19888e-06 8V12L9.37978 10.66ZM13.0846 5.42308L12 9.53674e-07H16L14.9154 5.42303C14.6194 5.36418 14.3134 5.33331 14.0001 5.33331C13.6868 5.33331 13.3807 5.3642 13.0846 5.42308ZM18.6205 9.33993C18.651 9.55556 18.6668 9.77592 18.6668 9.99998C18.6668 10.224 18.651 10.4444 18.6205 10.6601L28 12V8L18.6205 9.33993ZM17.792 7.27919C17.5907 6.99911 17.3591 6.74226 17.1021 6.5134L26.0383 -3.53064L28.7149 -0.558062L17.792 7.27919Z" fill="#FFE94F"/>
</g>
</svg>

<svg width="28" height="20" fill="none" xmlns="http://www.w3.org/2000/svg"><rect width="28" height="20" rx="2" fill="#fff"/><mask id="a" style="mask-type:alpha" maskUnits="userSpaceOnUse" x="0" y="0" width="28" height="20"><rect width="28" height="20" rx="2" fill="#fff"/></mask><g mask="url(#a)"><path fill="#E81B26" d="M0 0h28v20H0z"/><path fill-rule="evenodd" clip-rule="evenodd" d="M14 13.333a3.333 3.333 0 1 0 0-6.666 3.333 3.333 0 0 0 0 6.666ZM10.208 7.28a4.65 4.65 0 0 1 .69-.766L1.962-3.531-.715-.558l10.923 7.837Zm.69 6.206a4.69 4.69 0 0 1-.69-.765L-.715 20.558l2.677 2.973 8.936-10.045Zm2.187 1.09L12 20h4l-1.085-5.423a4.686 4.686 0 0 1-1.83 0Zm4.707-1.855c-.201.28-.433.537-.69.766l8.936 10.044 2.677-2.973-10.923-7.837ZM9.38 10.66a4.708 4.708 0 0 1 0-1.32L0 8v4l9.38-1.34Zm3.705-5.237L12 0h4l-1.085 5.423a4.69 4.69 0 0 0-1.83 0ZM18.62 9.34a4.71 4.71 0 0 1 0 1.32L28 12V8l-9.38 1.34Zm-.828-2.06a4.694 4.694 0 0 0-.69-.767L26.038-3.53l2.677 2.973L17.792 7.28Z" fill="#FFE94F"/></g></svg>
